img/logo.svg

<svg width="198" height="48" viewBox="0 0 198 48" fill="none" xmlns="http://www.w3.org/2000/svg">
<g clip-path="url(#clip0_8_28795)">
<g clip-path="url(#clip1_8_28795)">
<path d="M24.6014 1.8448C22.377 0.560522 19.6363 0.560522 17.4119 1.8448L3.23955 10.0272C1.27577 11.161 -0.0223262 13.1436 -0.2996 15.36C-0.336407 15.6542 -0.355225 15.9525 -0.355225 16.2535V32.6184C-0.355225 34.0846 0.0912948 35.4872 0.888319 36.66C3.87897 39.7897 8.0943 41.7393 12.765 41.7393C16.3789 41.7393 19.7202 40.5721 22.4325 38.5942C26.2548 35.8068 28.828 31.4093 29.1546 26.399C28.7698 30.5445 25.2819 33.7899 21.0359 33.7899C17.2085 33.7899 13.997 31.1529 13.1192 27.5966L13.0228 27.6141C12.9196 27.2232 12.8302 26.8266 12.7553 26.425C12.5697 25.4304 12.4727 24.4047 12.4727 23.3563C12.4727 17.9596 15.0434 13.1635 19.0269 10.1254C21.8228 7.99307 25.3146 6.72677 29.1022 6.72677C31.096 6.72677 33.0078 7.07765 34.7793 7.72102L24.6014 1.8448Z" fill="url(#paint0_linear_8_28795)"/>
<path d="M29.1332 24.6695C29.1656 24.9434 29.1843 25.2215 29.1888 25.503C29.1895 25.4402 29.1899 25.3773 29.1899 25.3144C29.1899 25.0957 29.1856 24.878 29.1771 24.6614L29.1332 24.6695Z" fill="url(#paint1_linear_8_28795)"/>
<path d="M29.1022 6.72681C31.096 6.72681 33.0078 7.07769 34.7793 7.72105L38.7738 10.0273C40.9982 11.3115 42.3685 13.685 42.3685 16.2536V32.6184C42.3685 35.187 40.9982 37.5604 38.7738 38.8447L24.6014 47.0271C22.377 48.3114 19.6363 48.3114 17.4119 47.0271L3.23955 38.8447C2.26635 38.2829 1.45664 37.5125 0.853638 36.6085C0.86512 36.6258 0.876684 36.6429 0.888317 36.66C3.87896 39.7898 8.0943 41.7393 12.765 41.7393C16.3789 41.7393 19.7202 40.5722 22.4325 38.5942C26.2548 35.8069 28.828 31.4093 29.1546 26.3991C29.178 26.1478 29.1899 25.8933 29.1899 25.6359C29.1899 25.6273 29.1899 25.6187 29.1898 25.6101C29.1899 25.596 29.1899 25.5819 29.1899 25.5678C29.1899 25.5318 29.1897 25.4958 29.1892 25.4599C29.1897 25.4115 29.1899 25.363 29.1899 25.3144C29.1899 25.0957 29.1856 24.878 29.1771 24.6615L29.141 24.6681C28.9791 23.1895 28.4227 21.8297 27.5795 20.6963L21.0359 11.9288L14.4924 20.6963C13.4807 22.0562 12.8819 23.7419 12.8819 25.5678C12.8819 25.5765 12.882 25.5853 12.882 25.594C12.8819 25.608 12.8819 25.6219 12.8819 25.6359C12.8819 26.3119 12.9641 26.9687 13.1192 27.5969L13.0228 27.6142C12.9196 27.2232 12.8302 26.8267 12.7553 26.425C12.5697 25.4304 12.4727 24.4047 12.4727 23.3563C12.4727 17.9597 15.0434 13.1635 19.0269 10.1254C21.8228 7.99311 25.3146 6.72681 29.1022 6.72681Z" fill="url(#paint2_linear_8_28795)"/>
</g>
<path d="M62.5565 22.3753C61.6236 22.3753 60.7582 22.2348 59.9602 21.954C59.1735 21.6623 58.4879 21.2518 57.9034 20.7225C57.3302 20.1932 56.8806 19.572 56.5547 18.8591C56.2288 18.1353 56.0658 17.3413 56.0658 16.4771C56.0658 15.6129 56.2288 14.8244 56.5547 14.1114C56.8806 13.3876 57.3302 12.7611 57.9034 12.2318C58.4879 11.7024 59.1735 11.2973 59.9602 11.0165C60.7582 10.7248 61.6236 10.579 62.5565 10.579C63.6467 10.579 64.6189 10.7626 65.4731 11.1299C66.3385 11.4972 67.0578 12.0265 67.631 12.7179L65.5068 14.5651C65.1246 14.133 64.7032 13.8035 64.2424 13.5767C63.7928 13.3498 63.287 13.2364 62.7251 13.2364C62.2418 13.2364 61.7978 13.312 61.3932 13.4632C60.9886 13.6145 60.6402 13.8359 60.348 14.1276C60.067 14.4085 59.8422 14.7487 59.6736 15.1484C59.5162 15.5481 59.4376 15.991 59.4376 16.4771C59.4376 16.9632 59.5162 17.4061 59.6736 17.8058C59.8422 18.2055 60.067 18.5512 60.348 18.8429C60.6402 19.1237 60.9886 19.3398 61.3932 19.491C61.7978 19.6423 62.2418 19.7179 62.7251 19.7179C63.287 19.7179 63.7928 19.6044 64.2424 19.3776C64.7032 19.1507 65.1246 18.8213 65.5068 18.3892L67.631 20.2364C67.0578 20.9169 66.3385 21.4463 65.4731 21.8244C64.6189 22.1916 63.6467 22.3753 62.5565 22.3753Z" fill="#062F61"/>
<path d="M72.2073 15.197H77.6864V17.5952H72.2073V15.197ZM72.4433 19.6693H78.6136V22.1484H69.1389V10.8058H78.3945V13.285H72.4433V19.6693Z" fill="#062F61"/>
<path d="M80.5154 22.1484V10.8058H91.5917V22.1484H88.2873V12.6369L89.0291 13.3498H83.078L83.8029 12.6369V22.1484H80.5154Z" fill="#062F61"/>
<path d="M96.7276 22.1484V12.6369L97.4694 13.3498H93.1029V10.8058H103.623V13.3498H99.2733L100.015 12.6369V22.1484H96.7276Z" fill="#062F61"/>
<path d="M105.162 22.1484V10.8058H108.449V17.4656L113.321 10.8058H116.457V22.1484H113.17V15.5049L108.314 22.1484H105.162Z" fill="#062F61"/>
<path d="M126.443 22.1484L123.122 16.7526L125.802 15.2294L130.202 22.1484H126.443ZM118.924 22.1484V10.8058H122.245V22.1484H118.924ZM121.284 17.8058V15.2132H125.566V17.8058H121.284ZM126.123 16.8174L123.037 16.4933L126.662 10.8058H130.169L126.123 16.8174Z" fill="#062F61"/>
<path d="M56.8076 38.3521V27.0095H59.5556L64.4278 34.7225H62.9779L67.749 27.0095H70.497L70.5307 38.3521H67.4455L67.4287 31.498H67.9513L64.3941 37.2341H62.9105L59.2521 31.498H59.8759V38.3521H56.8076Z" fill="#062F61"/>
<path d="M71.8607 38.3521L77.0701 27.0095H80.3576L85.5839 38.3521H82.1109L78.0311 28.5813H79.3461L75.2662 38.3521H71.8607ZM74.7099 36.1484L75.5697 33.7827H81.3354L82.1952 36.1484H74.7099Z" fill="#062F61"/>
<path d="M92.5205 38.579C91.5877 38.579 90.7222 38.4385 89.9242 38.1577C89.1375 37.866 88.4519 37.4555 87.8675 36.9262C87.2943 36.3969 86.8447 35.7757 86.5187 35.0628C86.1928 34.339 86.0298 33.545 86.0298 32.6808C86.0298 31.8166 86.1928 31.0281 86.5187 30.3151C86.8447 29.5913 87.2943 28.9648 87.8675 28.4355C88.4519 27.9061 89.1375 27.501 89.9242 27.2202C90.7222 26.9285 91.5877 26.7827 92.5205 26.7827C93.6107 26.7827 94.5829 26.9663 95.4371 27.3336C96.3025 27.7009 97.0218 28.2302 97.595 28.9216L95.4708 30.7688C95.0887 30.3367 94.6672 30.0072 94.2064 29.7804C93.7568 29.5535 93.2511 29.4401 92.6891 29.4401C92.2058 29.4401 91.7619 29.5157 91.3572 29.6669C90.9526 29.8182 90.6042 30.0396 90.312 30.3313C90.031 30.6122 89.8062 30.9524 89.6376 31.3521C89.4803 31.7518 89.4016 32.1947 89.4016 32.6808C89.4016 33.1669 89.4803 33.6098 89.6376 34.0095C89.8062 34.4092 90.031 34.7549 90.312 35.0466C90.6042 35.3274 90.9526 35.5435 91.3572 35.6947C91.7619 35.846 92.2058 35.9216 92.6891 35.9216C93.2511 35.9216 93.7568 35.8081 94.2064 35.5813C94.6672 35.3544 95.0887 35.025 95.4708 34.5929L97.595 36.4401C97.0218 37.1206 96.3025 37.65 95.4371 38.0281C94.5829 38.3953 93.6107 38.579 92.5205 38.579Z" fill="#062F61"/>
<path d="M101.617 38.3521V28.8406L102.359 29.5535H97.9927V27.0095H108.513V29.5535H104.163L104.905 28.8406V38.3521H101.617Z" fill="#062F61"/>
<path d="M113.12 31.4007H118.599V33.7989H113.12V31.4007ZM113.356 35.873H119.526V38.3521H110.051V27.0095H119.307V29.4887H113.356V35.873Z" fill="#062F61"/>
<path d="M121.428 38.3521V27.0095H126.823C127.902 27.0095 128.829 27.177 129.604 27.5118C130.391 27.8467 130.998 28.3328 131.425 28.9702C131.852 29.5967 132.066 30.3421 132.066 31.2063C132.066 32.0597 131.852 32.7997 131.425 33.4262C130.998 34.0527 130.391 34.5389 129.604 34.8845C128.829 35.2194 127.902 35.3869 126.823 35.3869H123.282L124.766 33.9933V38.3521H121.428ZM124.766 34.3336L123.282 32.8591H126.62C127.317 32.8591 127.834 32.7132 128.171 32.4216C128.52 32.1299 128.694 31.7248 128.694 31.2063C128.694 30.677 128.52 30.2665 128.171 29.9748C127.834 29.6831 127.317 29.5373 126.62 29.5373H123.282L124.766 28.0628V34.3336Z" fill="#062F61"/>
<path fill-rule="evenodd" clip-rule="evenodd" d="M196.466 26.5438C196.936 25.0312 197.171 23.3162 197.171 21.3987C197.171 19.3979 196.942 17.665 196.483 16.2001C196.037 14.7233 195.367 13.5026 194.474 12.5379C193.592 11.5732 192.487 10.8586 191.159 10.3941C189.843 9.92963 188.321 9.69739 186.593 9.69739C184.783 9.69739 183.19 9.97726 181.815 10.537C180.452 11.0968 179.306 11.9007 178.377 12.9487C177.449 13.9968 176.749 15.2712 176.279 16.7718C175.809 18.2605 175.574 19.9398 175.574 21.8096C175.574 23.8462 175.791 25.6088 176.226 27.0976C176.673 28.5863 177.337 29.813 178.219 30.7777C179.1 31.7424 180.199 32.4629 181.515 32.9393C182.844 33.4038 184.395 33.636 186.17 33.636C187.968 33.636 189.549 33.3621 190.912 32.8143C192.287 32.2545 193.439 31.4506 194.368 30.4025C195.296 29.3426 195.996 28.0563 196.466 26.5438ZM192.023 18.3439C192.211 19.3324 192.305 20.434 192.305 21.6489C192.305 22.7564 192.205 23.8045 192.005 24.793C191.817 25.7696 191.488 26.6271 191.018 27.3655C190.548 28.1039 189.931 28.6875 189.167 29.1163C188.403 29.545 187.451 29.7594 186.311 29.7594C185.171 29.7594 184.225 29.5748 183.472 29.2056C182.72 28.8245 182.121 28.2766 181.674 27.562C181.227 26.8475 180.91 25.9899 180.722 24.9895C180.534 23.9772 180.44 22.8398 180.44 21.5774C180.44 20.4936 180.534 19.4693 180.722 18.5047C180.922 17.5281 181.257 16.6765 181.727 15.95C182.197 15.2235 182.814 14.6459 183.578 14.2171C184.342 13.7765 185.294 13.5561 186.434 13.5561C187.563 13.5561 188.503 13.7527 189.255 14.1457C190.007 14.5268 190.607 15.0747 191.053 15.7892C191.512 16.4919 191.835 17.3435 192.023 18.3439Z" fill="#1F93FF"/>
<path fill-rule="evenodd" clip-rule="evenodd" d="M153.06 17.1291C153.06 18.4272 152.861 19.5765 152.461 20.577C152.061 21.5774 151.479 22.423 150.716 23.1137C149.952 23.7926 149.011 24.3107 147.895 24.668C146.79 25.0253 145.485 25.2039 143.981 25.2039H142.077V32.582C142.077 32.7011 142.036 32.8083 141.953 32.9036C141.883 32.9989 141.759 33.0763 141.583 33.1358C141.407 33.1954 141.172 33.243 140.878 33.2787C140.584 33.3145 140.208 33.3323 139.75 33.3323C139.303 33.3323 138.927 33.3145 138.621 33.2787C138.327 33.243 138.092 33.1954 137.916 33.1358C137.74 33.0763 137.616 32.9989 137.546 32.9036C137.475 32.8083 137.44 32.7011 137.44 32.582V11.7876C137.44 11.2278 137.581 10.8109 137.863 10.537C138.157 10.2512 138.539 10.1083 139.009 10.1083H144.386C144.927 10.1083 145.438 10.1321 145.92 10.1797C146.414 10.2155 147.001 10.3048 147.683 10.4477C148.365 10.5787 149.052 10.8288 149.746 11.198C150.451 11.5672 151.05 12.0377 151.544 12.6093C152.038 13.1691 152.414 13.8301 152.672 14.5923C152.931 15.3426 153.06 16.1882 153.06 17.1291ZM148.212 17.4685C148.212 16.6587 148.071 15.9917 147.789 15.4677C147.507 14.9437 147.16 14.5566 146.749 14.3065C146.337 14.0564 145.902 13.9015 145.444 13.842C144.997 13.7705 144.533 13.7348 144.051 13.7348H142.077V21.5774H144.157C144.898 21.5774 145.515 21.4762 146.008 21.2737C146.514 21.0712 146.925 20.7913 147.242 20.434C147.56 20.0649 147.801 19.6302 147.965 19.1299C148.13 18.6178 148.212 18.064 148.212 17.4685Z" fill="#1F93FF"/>
<path fill-rule="evenodd" clip-rule="evenodd" d="M173.582 32.6178C173.582 32.7488 173.558 32.8619 173.511 32.9572C173.464 33.0405 173.353 33.112 173.176 33.1715C173 33.2311 172.741 33.2728 172.401 33.2966C172.06 33.3204 171.596 33.3323 171.008 33.3323C170.514 33.3323 170.12 33.3204 169.827 33.2966C169.533 33.2728 169.298 33.2311 169.121 33.1715C168.957 33.1001 168.839 33.0167 168.769 32.9214C168.698 32.8143 168.64 32.6892 168.592 32.5463L166.547 27.3834C166.301 26.7998 166.06 26.2818 165.825 25.8292C165.589 25.3766 165.325 25.0015 165.031 24.7037C164.749 24.3941 164.42 24.1618 164.044 24.007C163.668 23.8521 163.233 23.7747 162.739 23.7747H161.294V32.582C161.294 32.7011 161.252 32.8083 161.17 32.9036C161.1 32.9989 160.976 33.0763 160.8 33.1358C160.624 33.1954 160.389 33.243 160.095 33.2787C159.801 33.3145 159.425 33.3323 158.966 33.3323C158.52 33.3323 158.144 33.3145 157.838 33.2787C157.544 33.243 157.309 33.1954 157.133 33.1358C156.957 33.0763 156.833 32.9989 156.763 32.9036C156.692 32.8083 156.657 32.7011 156.657 32.582V11.591C156.657 11.067 156.786 10.6919 157.045 10.4656C157.315 10.2274 157.644 10.1083 158.032 10.1083H163.938C164.538 10.1083 165.031 10.1202 165.419 10.144C165.807 10.1678 166.16 10.1976 166.477 10.2333C167.394 10.3643 168.216 10.5906 168.945 10.9122C169.686 11.2338 170.309 11.6566 170.814 12.1806C171.331 12.6927 171.725 13.306 171.995 14.0206C172.265 14.7233 172.401 15.5332 172.401 16.4502C172.401 17.2244 172.301 17.933 172.101 18.5761C171.913 19.2073 171.631 19.773 171.255 20.2733C170.879 20.7735 170.414 21.2082 169.862 21.5774C169.309 21.9466 168.681 22.2443 167.975 22.4706C168.316 22.6374 168.634 22.8398 168.927 23.078C169.233 23.3162 169.515 23.608 169.774 23.9534C170.044 24.2869 170.297 24.6739 170.532 25.1146C170.767 25.5433 170.996 26.0316 171.219 26.5795L173.141 31.135C173.317 31.5875 173.435 31.921 173.494 32.1354C173.552 32.3379 173.582 32.4987 173.582 32.6178ZM167.605 16.9326C167.605 16.1704 167.435 15.5272 167.094 15.0032C166.753 14.4791 166.195 14.11 165.419 13.8956C165.184 13.836 164.914 13.7884 164.608 13.7527C164.314 13.7169 163.903 13.6991 163.374 13.6991H161.294V20.2554H163.656C164.314 20.2554 164.89 20.178 165.384 20.0232C165.877 19.8564 166.289 19.6302 166.618 19.3443C166.947 19.0466 167.194 18.6952 167.358 18.2903C167.523 17.8854 167.605 17.4328 167.605 16.9326Z" fill="#1F93FF"/>
<path d="M196.581 37.9268H137.171V39.6974H196.581V37.9268Z" fill="#1F93FF"/>
</g>
<defs>
<linearGradient id="paint0_linear_8_28795" x1="34.4342" y1="41.7393" x2="34.4342" y2="0.607389" gradientUnits="userSpaceOnUse">
<stop stop-color="#017EFC"/>
<stop offset="1" stop-color="#10D4FF"/>
</linearGradient>
<linearGradient id="paint1_linear_8_28795" x1="34.4342" y1="41.7393" x2="34.4342" y2="0.607389" gradientUnits="userSpaceOnUse">
<stop stop-color="#017EFC"/>
<stop offset="1" stop-color="#10D4FF"/>
</linearGradient>
<linearGradient id="paint2_linear_8_28795" x1="21.6111" y1="6.72681" x2="21.6111" y2="47.9903" gradientUnits="userSpaceOnUse">
<stop stop-color="#017EFC"/>
<stop offset="1" stop-color="#10D4FF"/>
</linearGradient>
<clipPath id="clip0_8_28795">
<rect width="198" height="48" fill="white"/>
</clipPath>
<clipPath id="clip1_8_28795">
<rect width="42" height="48" fill="white"/>
</clipPath>
</defs>
</svg>

<svg width="198" height="48" fill="none" xmlns="http://www.w3.org/2000/svg"><g clip-path="url(#clip0_8_28795)"><g clip-path="url(#clip1_8_28795)"><path d="M24.601 1.845a7.19 7.19 0 00-7.19 0L3.24 10.027a7.19 7.19 0 00-3.595 6.226v16.365c0 1.467.446 2.87 1.243 4.042a16.378 16.378 0 0011.877 5.08 16.35 16.35 0 009.668-3.146A16.406 16.406 0 0029.155 26.4a8.155 8.155 0 01-16.036 1.198l-.096.017a16.534 16.534 0 01-.55-4.258c0-5.396 2.57-10.193 6.554-13.23a16.557 16.557 0 0110.075-3.4c1.994 0 3.906.352 5.677.995L24.601 1.845z" fill="url(#paint0_linear_8_28795)"/><path d="M29.133 24.67c.033.273.051.551.056.833a16.925 16.925 0 00-.012-.842l-.044.008z" fill="url(#paint1_linear_8_28795)"/><path d="M29.102 6.727c1.994 0 3.906.35 5.677.994l3.995 2.306a7.19 7.19 0 013.594 6.227v16.364a7.19 7.19 0 01-3.594 6.227L24.6 47.027a7.19 7.19 0 01-7.19 0L3.24 38.845A7.182 7.182 0 01.888 36.66a16.378 16.378 0 0011.877 5.08 16.35 16.35 0 009.668-3.146A16.406 16.406 0 0029.155 26.4a8.23 8.23 0 00.035-.763v-.322c0-.218-.004-.436-.013-.652l-.036.006a8.126 8.126 0 00-1.561-3.972l-6.544-8.767-6.544 8.767a8.133 8.133 0 00-1.61 4.872v.068c0 .676.082 1.333.237 1.96l-.096.018a16.537 16.537 0 01-.55-4.258c0-5.396 2.57-10.193 6.554-13.23a16.557 16.557 0 0110.075-3.4z" fill="url(#paint2_linear_8_28795)"/></g><path d="M62.556 22.375a7.77 7.77 0 01-2.596-.421 6.281 6.281 0 01-2.057-1.232 5.785 5.785 0 01-1.348-1.863 5.735 5.735 0 01-.49-2.382c0-.864.164-1.653.49-2.366a5.734 5.734 0 011.348-1.88 6.062 6.062 0 012.057-1.214 7.506 7.506 0 012.596-.438c1.09 0 2.063.184 2.917.55a5.591 5.591 0 012.158 1.589l-2.124 1.847a4.121 4.121 0 00-1.265-.988 3.32 3.32 0 00-1.517-.34c-.483 0-.927.075-1.332.226a2.893 2.893 0 00-1.045.665c-.281.28-.506.62-.674 1.02a3.59 3.59 0 00-.236 1.33c0 .485.078.928.236 1.328.168.4.393.745.674 1.037.292.28.64.497 1.045.648.405.151.849.227 1.332.227.562 0 1.068-.114 1.517-.34a4.125 4.125 0 001.265-.989l2.124 1.847a5.818 5.818 0 01-2.158 1.588c-.854.368-1.826.551-2.916.551zm9.651-7.178h5.48v2.398h-5.48v-2.398zm.236 4.472h6.17v2.48H69.14V10.805h9.255v2.479h-5.95v6.384zm8.072 2.479V10.806h11.077v11.342h-3.305v-9.511l.742.713h-5.951l.725-.713v9.511h-3.288zm16.213 0v-9.511l.741.713h-4.366v-2.544h10.52v2.544h-4.35l.742-.713v9.511h-3.287zm8.434 0V10.806h3.287v6.66l4.872-6.66h3.136v11.342h-3.287v-6.643l-4.856 6.643h-3.152zm21.281 0l-3.321-5.395 2.68-1.524 4.4 6.92h-3.759zm-7.519 0V10.806h3.321v11.342h-3.321zm2.36-4.342v-2.593h4.282v2.593h-4.282zm4.839-.989l-3.086-.324 3.625-5.687h3.507l-4.046 6.011zM56.808 38.352V27.01h2.748l4.872 7.712h-1.45l4.771-7.713h2.748l.034 11.343h-3.086l-.016-6.854h.522l-3.557 5.736H62.91l-3.658-5.736h.624v6.854h-3.068zm15.052 0l5.21-11.342h3.288l5.226 11.342H82.11l-4.08-9.77h1.315l-4.08 9.77H71.86zm2.85-2.204l.86-2.365h5.765l.86 2.365H74.71zm17.81 2.431a7.77 7.77 0 01-2.596-.421 6.28 6.28 0 01-2.056-1.232 5.786 5.786 0 01-1.35-1.863 5.735 5.735 0 01-.488-2.382c0-.864.163-1.653.489-2.366a5.736 5.736 0 011.349-1.88 6.06 6.06 0 012.056-1.215 7.507 7.507 0 012.596-.437c1.09 0 2.063.183 2.917.55a5.591 5.591 0 012.158 1.589l-2.124 1.847a4.12 4.12 0 00-1.265-.989 3.32 3.32 0 00-1.517-.34c-.483 0-.927.076-1.332.227a2.893 2.893 0 00-1.045.664 3.15 3.15 0 00-.674 1.021 3.6 3.6 0 00-.236 1.329c0 .486.078.929.236 1.329.168.4.393.745.674 1.037.292.28.64.497 1.045.648.405.151.849.227 1.332.227.562 0 1.068-.114 1.517-.34a4.13 4.13 0 001.265-.99l2.124 1.848a5.818 5.818 0 01-2.158 1.588c-.854.367-1.826.551-2.916.551zm9.097-.227v-9.511l.742.712h-4.366V27.01h10.52v2.544h-4.35l.742-.712v9.511h-3.288zM113.12 31.4h5.479v2.4h-5.479v-2.4zm.236 4.473h6.17v2.48h-9.475V27.008h9.256v2.48h-5.951v6.384zm8.072 2.479V27.01h5.395c1.079 0 2.006.167 2.781.502.787.335 1.394.82 1.821 1.458.427.627.641 1.372.641 2.236 0 .854-.214 1.594-.641 2.22-.427.627-1.034 1.113-1.821 1.459-.775.334-1.702.502-2.781.502h-3.541l1.484-1.394v4.36h-3.338zm3.338-4.018l-1.484-1.475h3.338c.697 0 1.214-.146 1.551-.437.349-.292.523-.697.523-1.216 0-.529-.174-.94-.523-1.231-.337-.292-.854-.438-1.551-.438h-3.338l1.484-1.474v6.27z" fill="#062F61"/><path fill-rule="evenodd" clip-rule="evenodd" d="M196.466 26.544c.47-1.513.705-3.228.705-5.145 0-2.001-.229-3.734-.688-5.199-.446-1.477-1.116-2.697-2.009-3.662-.882-.965-1.987-1.68-3.315-2.144-1.316-.464-2.838-.697-4.566-.697-1.81 0-3.403.28-4.778.84-1.363.56-2.509 1.364-3.438 2.412-.928 1.048-1.628 2.322-2.098 3.823-.47 1.489-.705 3.168-.705 5.038 0 2.036.217 3.799.652 5.288.447 1.488 1.111 2.715 1.993 3.68.881.964 1.98 1.685 3.296 2.161 1.329.465 2.88.697 4.655.697 1.798 0 3.379-.274 4.742-.822 1.375-.56 2.527-1.363 3.456-2.412.928-1.06 1.628-2.346 2.098-3.858zm-4.443-8.2c.188.988.282 2.09.282 3.305 0 1.107-.1 2.155-.3 3.144-.188.977-.517 1.834-.987 2.573a5.148 5.148 0 01-1.851 1.75c-.764.429-1.716.643-2.856.643s-2.086-.184-2.839-.553a4.462 4.462 0 01-1.798-1.644c-.447-.715-.764-1.572-.952-2.573-.188-1.012-.282-2.15-.282-3.412 0-1.083.094-2.108.282-3.072.2-.977.535-1.828 1.005-2.555a5.202 5.202 0 011.851-1.733c.764-.44 1.716-.66 2.856-.66 1.129 0 2.069.196 2.821.589a4.456 4.456 0 011.798 1.643c.459.703.782 1.554.97 2.555zM153.06 17.13c0 1.297-.199 2.447-.599 3.447-.4 1-.982 1.846-1.745 2.537-.764.679-1.705 1.197-2.821 1.554-1.105.357-2.41.536-3.914.536h-1.904v7.378c0 .12-.041.226-.124.322-.07.095-.194.172-.37.232a3.64 3.64 0 01-.705.143c-.294.035-.67.053-1.128.053-.447 0-.823-.017-1.129-.053a3.64 3.64 0 01-.705-.143c-.176-.06-.3-.137-.37-.232a.524.524 0 01-.106-.322V11.788c0-.56.141-.977.423-1.251.294-.286.676-.429 1.146-.429h5.377c.541 0 1.052.024 1.534.072a13.57 13.57 0 011.763.268 7.344 7.344 0 012.063.75 6.09 6.09 0 011.798 1.411c.494.56.87 1.221 1.128 1.983.259.75.388 1.596.388 2.537zm-4.848.338c0-.81-.141-1.476-.423-2-.282-.524-.629-.911-1.04-1.162a3.316 3.316 0 00-1.305-.464 8.807 8.807 0 00-1.393-.107h-1.974v7.842h2.08c.741 0 1.358-.1 1.851-.303a3.21 3.21 0 001.234-.84c.318-.37.559-.804.723-1.304a5.389 5.389 0 00.247-1.662zm25.37 15.15a.76.76 0 01-.071.34c-.047.083-.158.154-.335.214-.176.06-.435.1-.775.125-.341.023-.805.035-1.393.035-.494 0-.888-.012-1.181-.035a3.05 3.05 0 01-.706-.125.845.845 0 01-.352-.25 1.594 1.594 0 01-.177-.376l-2.045-5.163a21.596 21.596 0 00-.722-1.554 4.642 4.642 0 00-.794-1.125 2.727 2.727 0 00-.987-.697c-.376-.155-.811-.232-1.305-.232h-1.445v8.807c0 .12-.042.226-.124.322-.07.095-.194.172-.37.232a3.64 3.64 0 01-.705.143c-.294.035-.67.053-1.129.053-.446 0-.822-.017-1.128-.053a3.64 3.64 0 01-.705-.143c-.176-.06-.3-.137-.37-.232a.524.524 0 01-.106-.322V11.591c0-.524.129-.9.388-1.125a1.44 1.44 0 01.987-.358h5.906a21.029 21.029 0 012.539.125c.917.131 1.739.358 2.468.68a5.721 5.721 0 011.869 1.268 5.081 5.081 0 011.181 1.84c.27.702.406 1.512.406 2.43 0 .773-.1 1.482-.3 2.125a5.33 5.33 0 01-.846 1.697 5.66 5.66 0 01-1.393 1.304 7.496 7.496 0 01-1.887.894c.341.166.659.369.952.607.306.238.588.53.847.875.27.334.523.72.758 1.162.235.428.464.917.687 1.465l1.922 4.555c.176.452.294.786.353 1 .058.203.088.364.088.483zm-5.977-15.685c0-.763-.17-1.406-.511-1.93-.341-.524-.899-.893-1.675-1.107a6.288 6.288 0 00-.811-.143 10.851 10.851 0 00-1.234-.054h-2.08v6.556h2.362c.658 0 1.234-.077 1.728-.232.493-.167.905-.393 1.234-.679.329-.297.576-.649.74-1.054.165-.405.247-.857.247-1.357z" fill="#1F93FF"/><path d="M196.581 37.927h-59.41v1.77h59.41v-1.77z" fill="#1F93FF"/></g><defs><linearGradient id="paint0_linear_8_28795" x1="34.434" y1="41.739" x2="34.434" y2=".607" gradientUnits="userSpaceOnUse"><stop stop-color="#017EFC"/><stop offset="1" stop-color="#10D4FF"/></linearGradient><linearGradient id="paint1_linear_8_28795" x1="34.434" y1="41.739" x2="34.434" y2=".607" gradientUnits="userSpaceOnUse"><stop stop-color="#017EFC"/><stop offset="1" stop-color="#10D4FF"/></linearGradient><linearGradient id="paint2_linear_8_28795" x1="21.611" y1="6.727" x2="21.611" y2="47.99" gradientUnits="userSpaceOnUse"><stop stop-color="#017EFC"/><stop offset="1" stop-color="#10D4FF"/></linearGradient><clipPath id="clip0_8_28795"><path fill="#fff" d="M0 0h198v48H0z"/></clipPath><clipPath id="clip1_8_28795"><path fill="#fff" d="M0 0h42v48H0z"/></clipPath></defs></svg>
